icons/filled/ironing-3.svg

<svg xmlns="http://www.w3.org/2000/svg" width="24" height="24" viewBox="0 0 24 24" fill="currentColor"><path d="M16.459 5a4 4 0 0 1 3.945 3.343l1.387 8.329a2 2 0 0 1 -1.971 2.328h-16.82a1 1 0 0 1 -1 -1a8 8 0 0 1 8 -8h8.652l-.22 -1.329a2 2 0 0 0 -1.811 -1.665l-.162 -.006h-7.459a1 1 0 1 1 0 -2zm-4.449 9h-.01a1 1 0 0 0 -.117 1.993l.127 .007a1 1 0 0 0 0 -2m-3 0h-.01a1 1 0 0 0 -.117 1.993l.127 .007a1 1 0 0 0 0 -2m6 0h-.01a1 1 0 0 0 -.117 1.993l.127 .007a1 1 0 0 0 0 -2"/></svg>

<svg xmlns="http://www.w3.org/2000/svg" width="24" height="24" fill="currentColor"><path d="M16.459 5a4 4 0 0 1 3.945 3.343l1.387 8.329A2 2 0 0 1 19.82 19H3a1 1 0 0 1-1-1 8 8 0 0 1 8-8h8.652l-.22-1.329a2 2 0 0 0-1.811-1.665L16.459 7H9a1 1 0 1 1 0-2zm-4.449 9H12a1 1 0 0 0-.117 1.993l.127.007a1 1 0 0 0 0-2m-3 0H9a1 1 0 0 0-.117 1.993L9.01 16a1 1 0 0 0 0-2m6 0H15a1 1 0 0 0-.117 1.993l.127.007a1 1 0 0 0 0-2"/></svg>
